X: 21593
T: MR. McNEIL OF OAKFIELDS REEL
C: By J. Boick
R: reel
B: K\"ohler's Violin Repository, v.2, 1885 p.159 #3
F: http://www.archive.org/details/klersviolinrepos02rugg
Z: 2012 John Chambers <jc:trillian.mit.edu>
M: C|
L: 1/8
K: F
uc |\
ABcf afcA | BdAc BGGB | ABcf dfcf | gfga f/f/f f :|
[| uc |\
AF F/F/F (AB)cA | dBcA BGGB | AF F/F/F (AB)cA | dfge fFFB |
AF F/F/F (AB)cA | dBcA BGGB | AF cA afge | fcdB AF"^Fine.""_D.C."F |]

%%sep 2 1 500

